icons/evolvere-flat-vivid-sunken-dark-fallback/places/16/user-trash-full.svg

<?xml version="1.0" encoding="UTF-8" standalone="no"?>
<!-- Created with Inkscape (http://www.inkscape.org/) -->

<svg
   xmlns:dc="http://purl.org/dc/elements/1.1/"
   xmlns:cc="http://creativecommons.org/ns#"
   xmlns:rdf="http://www.w3.org/1999/02/22-rdf-syntax-ns#"
   xmlns:svg="http://www.w3.org/2000/svg"
   xmlns="http://www.w3.org/2000/svg"
   xmlns:sodipodi="http://sodipodi.sourceforge.net/DTD/sodipodi-0.dtd"
   xmlns:inkscape="http://www.inkscape.org/namespaces/inkscape"
   version="1.1"
   width="16"
   height="16"
   viewBox="0 0 16 16"
   id="svg2"
   inkscape:version="0.48.3.1 r9886"
   sodipodi:docname="edittrash.svg">
  <sodipodi:namedview
     pagecolor="#ffffff"
     bordercolor="#666666"
     borderopacity="1"
     objecttolerance="10"
     gridtolerance="10"
     guidetolerance="10"
     inkscape:pageopacity="0"
     inkscape:pageshadow="2"
     inkscape:window-width="1920"
     inkscape:window-height="1032"
     id="namedview6"
     showgrid="true"
     inkscape:zoom="41.7193"
     inkscape:cx="12.712693"
     inkscape:cy="10.223633"
     inkscape:window-x="-7"
     inkscape:window-y="25"
     inkscape:window-maximized="1"
     inkscape:current-layer="svg2"
     inkscape:snap-bbox="true"
     inkscape:bbox-paths="true"
     inkscape:bbox-nodes="true"
     inkscape:snap-bbox-edge-midpoints="true"
     inkscape:snap-bbox-midpoints="true"
     inkscape:object-paths="true"
     inkscape:snap-intersection-paths="true"
     inkscape:object-nodes="true"
     inkscape:snap-smooth-nodes="true"
     inkscape:snap-midpoints="true"
     inkscape:snap-object-midpoints="true"
     inkscape:snap-center="true">
    <inkscape:grid
       type="xygrid"
       id="grid3751" />
  </sodipodi:namedview>
  <metadata
     id="metadata10">
    <rdf:RDF>
      <cc:Work
         rdf:about="">
        <dc:format>image/svg+xml</dc:format>
        <dc:type
           rdf:resource="http://purl.org/dc/dcmitype/StillImage" />
        <dc:title />
      </cc:Work>
    </rdf:RDF>
  </metadata>
  <defs
     id="defs8" />
  <path
     sodipodi:nodetypes="cccccccccccccccscccscccsccccscccsccccscccscccscc"
     inkscape:connector-curvature="0"
     id="path2983"
     d="M 6,1 5.96875,2 1,2 1,5 15,5 15,2 9.96875,2 10,1 z M 7,3 9,3 9,4 7,4 z M 2,6 C 2,6 1.1275611,8.7050785 1,10.5 0.87243886,12.294922 2,15 2,15 l 3,0 0,-1 C 5,14 3.5,11.990712 3.5,10.5 3.5,9.009288 5,6 5,6 z M 6,6 C 6,6 4.75,9.0446459 4.75,10.5 4.75,11.955354 6,14 6,14 l 0,1 1,0 0,-1 C 7,14 6,11.924001 6,10.5 6,9.0759994 7,6 7,6 z m 3,0 c 0,0 1,3.0759994 1,4.5 0,1.424001 -1,3.5 -1,3.5 l 0,1 1,0 0,-1 c 0,0 1.25,-2.044646 1.25,-3.5 C 11.25,9.0446459 10,6 10,6 z m 2,0 c 0,0 1.5,3.009288 1.5,4.5 0,1.490712 -1.5,3.5 -1.5,3.5 l 0,1 3,0 c 0,0 1.127561,-2.705078 1,-4.5 C 14.872439,8.7050785 14,6 14,6 z"
     style="fill:#27303a;fill-opacity:0.753280819999999968" />
  <path
     style="font-size:medium;font-style:normal;font-variant:normal;font-weight:normal;font-stretch:normal;text-indent:0;text-align:start;text-decoration:none;line-height:normal;letter-spacing:normal;word-spacing:normal;text-transform:none;direction:ltr;block-progression:tb;writing-mode:lr-tb;text-anchor:start;baseline-shift:baseline;color:#000000;fill:#f1f3f5;fill-opacity:0.90288714000000003;fill-rule:nonzero;stroke:none;stroke-width:2;marker:none;visibility:visible;display:inline;overflow:visible;enable-background:accumulate;font-family:Sans;-inkscape-font-specification:Sans"
     d="M 6,0 6,1 1,1 0,1 0,2 0,5 0,6 1,6 C 0.8964711,6.3158047 0.13586404,8.5257472 0,10.4375 -0.08106814,11.578216 0.21820594,12.764442 0.5,13.71875 0.78179406,14.673058 1.0625,15.375 1.0625,15.375 L 1.34375,16 2,16 l 3,0 1,0 1,0 1,0 1,0 1,0 1,0 3,0 0.65625,0 0.28125,-0.625 c 0,0 0.280706,-0.701942 0.5625,-1.65625 C 15.781794,12.764442 16.081068,11.578216 16,10.4375 15.864136,8.5257472 15.103529,6.3158047 15,6 l 1,0 0,-1 0,-3 0,-1 -1,0 -5,0 0,-1 z m -1,1 6,0 0,1 4,0 0,3 L 1,5 1,2 5,2 z m -3,5 2,0 1,0 1,0 4,0 1,0 2,0 1,0 c 0,0 0.872439,2.7050785 1,4.5 0.127561,1.794922 -1,4.5 -1,4.5 l -1,0 -2,0 -1,0 -4,0 -1,0 -1,0 -2,0 C 2,15 0.87243886,12.294922 1,10.5 1.1275611,8.7050785 2,6 2,6 z M 4.15625,8 C 3.8243566,8.8694864 3.5,9.8329593 3.5,10.5 c 0,0.830864 0.4624812,1.78463 0.875,2.5 L 5.5,13 C 5.1531514,12.276745 4.75,11.321235 4.75,10.5 4.75,9.8426701 5.0015987,8.8787928 5.28125,8 z m 6.5625,0 c 0.279651,0.8787928 0.53125,1.8426701 0.53125,2.5 0,0.821235 -0.403151,1.776745 -0.75,2.5 l 1.125,0 C 12.037519,12.28463 12.5,11.330864 12.5,10.5 12.5,9.8329593 12.175643,8.8694864 11.84375,8 z"
     id="path3001"
     inkscape:connector-curvature="0"
     sodipodi:nodetypes="ccccccccsscccccccccccccssccccccccccccccccccccccccccsccccccccsccsccscccsccscc" />
</svg>

<?xml version="1.0" encoding="UTF-8" standalone="no"?>
<!-- Created with Inkscape (http://www.inkscape.org/) -->

<svg
   xmlns:dc="http://purl.org/dc/elements/1.1/"
   xmlns:cc="http://creativecommons.org/ns#"
   xmlns:rdf="http://www.w3.org/1999/02/22-rdf-syntax-ns#"
   xmlns:svg="http://www.w3.org/2000/svg"
   xmlns="http://www.w3.org/2000/svg"
   xmlns:sodipodi="http://sodipodi.sourceforge.net/DTD/sodipodi-0.dtd"
   xmlns:inkscape="http://www.inkscape.org/namespaces/inkscape"
   width="16"
   height="16"
   id="svg27665"
   version="1.1"
   inkscape:version="0.48.4 r9939"
   sodipodi:docname="user-trash-full.svg">
  <defs
     id="defs27667" />
  <sodipodi:namedview
     id="base"
     pagecolor="#ffffff"
     bordercolor="#666666"
     borderopacity="1.0"
     inkscape:pageopacity="0.0"
     inkscape:pageshadow="2"
     inkscape:zoom="32"
     inkscape:cx="15.224214"
     inkscape:cy="7.9364102"
     inkscape:document-units="px"
     inkscape:current-layer="layer1"
     showgrid="true"
     inkscape:window-width="1920"
     inkscape:window-height="1016"
     inkscape:window-x="-5"
     inkscape:window-y="27"
     inkscape:window-maximized="1"
     inkscape:snap-bbox="true"
     inkscape:bbox-paths="true"
     inkscape:bbox-nodes="true"
     inkscape:snap-bbox-edge-midpoints="true"
     inkscape:snap-bbox-midpoints="true"
     inkscape:object-paths="true"
     inkscape:snap-intersection-paths="true"
     inkscape:object-nodes="true"
     inkscape:snap-smooth-nodes="true"
     inkscape:snap-midpoints="true"
     inkscape:snap-object-midpoints="true"
     inkscape:snap-center="true"
     inkscape:snap-global="true"
     showguides="false"
     inkscape:guide-bbox="true"
     fit-margin-top="0"
     fit-margin-left="0"
     fit-margin-right="0"
     fit-margin-bottom="0"
     inkscape:showpageshadow="false">
    <sodipodi:guide
       orientation="0,1"
       position="599.99999,299.99993"
       id="guide3572" />
    <sodipodi:guide
       orientation="1,0"
       position="294.41949,12.121716"
       id="guide3574" />
    <sodipodi:guide
       orientation="0,1"
       position="456.04389,599.99992"
       id="guide3576" />
    <sodipodi:guide
       orientation="0,1"
       position="-2.8882813e-06,-8.4406273e-05"
       id="guide3578" />
    <sodipodi:guide
       orientation="1,0"
       position="-2.8882813e-06,157.58366"
       id="guide3580" />
    <sodipodi:guide
       orientation="1,0"
       position="599.99999,121.21821"
       id="guide3582" />
    <sodipodi:guide
       orientation="0,1"
       position="599.99999,-714.34359"
       id="guide5928" />
    <sodipodi:guide
       orientation="0,1"
       position="599.99999,-414.34359"
       id="guide5930" />
    <sodipodi:guide
       orientation="0,1"
       position="599.99999,-1014.3435"
       id="guide5932" />
    <sodipodi:guide
       orientation="0,1"
       position="451.57029,524.99606"
       id="guide5294" />
    <sodipodi:guide
       orientation="0,1"
       position="451.57029,75.013516"
       id="guide5296" />
    <sodipodi:guide
       orientation="0,1"
       position="496.01499,-931.36409"
       id="guide5413" />
    <sodipodi:guide
       orientation="0,1"
       position="457.34859,-489.34389"
       id="guide5415" />
    <inkscape:grid
       type="xygrid"
       id="grid3070"
       empspacing="5"
       visible="true"
       enabled="true"
       snapvisiblegridlinesonly="true"
       originx="4.3243213e-05px"
       originy="-2.6947047e-05px" />
  </sodipodi:namedview>
  <metadata
     id="metadata27670">
    <rdf:RDF>
      <cc:Work
         rdf:about="">
        <dc:format>image/svg+xml</dc:format>
        <dc:type
           rdf:resource="http://purl.org/dc/dcmitype/StillImage" />
        <dc:title />
      </cc:Work>
    </rdf:RDF>
  </metadata>
  <g
     inkscape:label="Camada 1"
     inkscape:groupmode="layer"
     id="layer1"
     transform="translate(3364.4171,-2100.7186)">
    <path
       style="fill:#27303a;fill-opacity:0.753280819999999968"
       d="M 6 1 L 5.96875 2 L 1 2 L 1 5 L 15 5 L 15 2 L 9.96875 2 L 10 1 L 6 1 z M 7 3 L 9 3 L 9 4 L 7 4 L 7 3 z M 2 6 C 2 6 1.1275 8.7051 1 10.5 C 0.8724 12.2949 2 15 2 15 L 5 15 L 5 14 C 5 14 3.5 11.9907 3.5 10.5 C 3.5 9.0093 5 6 5 6 L 2 6 z M 6 6 C 6 6 4.75 9.0446 4.75 10.5 C 4.75 11.9554 6 14 6 14 L 6 15 L 7 15 L 7 14 C 7 14 6 11.924 6 10.5 C 6 9.076 7 6 7 6 L 6 6 z M 9 6 C 9 6 10 9.076 10 10.5 C 10 11.924 9 14 9 14 L 9 15 L 10 15 L 10 14 C 10 14 11.25 11.9554 11.25 10.5 C 11.25 9.0446 10 6 10 6 L 9 6 z M 11 6 C 11 6 12.5 9.0093 12.5 10.5 C 12.5 11.9907 11 14 11 14 L 11 15 L 14 15 C 14 15 15.1275 12.2949 15 10.5 C 14.8724 8.7051 14 6 14 6 L 11 6 z "
       transform="translate(-3364.4171,2100.7186)"
       id="path2983" />
    <path
       style="font-size:medium;font-style:normal;font-variant:normal;font-weight:normal;font-stretch:normal;text-indent:0;text-align:start;text-decoration:none;line-height:normal;letter-spacing:normal;word-spacing:normal;text-transform:none;direction:ltr;block-progression:tb;writing-mode:lr-tb;text-anchor:start;baseline-shift:baseline;color:#000000;fill:#f1f3f5;fill-opacity:0.90288714000000003;fill-rule:nonzero;stroke:none;stroke-width:2;marker:none;visibility:visible;display:inline;overflow:visible;enable-background:accumulate;font-family:Sans;-inkscape-font-specification:Sans"
       d="M 6 0 L 6 1 L 10 1 L 10 0 L 6 0 z M 0 1 L 0 2 L 0 5 L 0 6 L 1 6 C 0.8965 6.3158 0.1359 8.5257 0 10.4375 C -0.081 11.5782 0.2182 12.76435 0.5 13.71875 C 0.7818 14.67305 1.0625 15.375 1.0625 15.375 L 1.34375 16 L 2 16 L 5 16 L 6 16 L 7 16 L 8 16 L 9 16 L 10 16 L 11 16 L 14 16 L 14.65625 16 L 14.9375 15.375 C 14.9375 15.375 15.2182 14.67305 15.5 13.71875 C 15.7818 12.76435 16.0811 11.5782 16 10.4375 C 15.8641 8.5257 15.1035 6.3158 15 6 L 16 6 L 16 5 L 16 2 L 16 1 L 15 1 L 11 1 L 11 2 L 15 2 L 15 5 L 1 5 L 1 2 L 5 2 L 5 1 L 1 1 L 0 1 z M 2 6 L 4 6 L 5 6 L 6 6 L 10 6 L 11 6 L 13 6 L 14 6 C 14 6 14.8724 8.7051 15 10.5 C 15.1275 12.2949 14 15 14 15 L 13 15 L 11 15 L 10 15 L 6 15 L 5 15 L 4 15 L 2 15 C 2 15 0.8724 12.2949 1 10.5 C 1.1275 8.7051 2 6 2 6 z M 4.15625 8 C 3.82435 8.8695 3.5 9.833 3.5 10.5 C 3.5 11.3309 3.9625 12.2846 4.375 13 L 5.5 13 C 5.1531 12.2767 4.75 11.3212 4.75 10.5 C 4.75 9.8427 5.00165 8.8788 5.28125 8 L 4.15625 8 z M 10.71875 8 C 10.99845 8.8788 11.25 9.8427 11.25 10.5 C 11.25 11.3212 10.8468 12.2767 10.5 13 L 11.625 13 C 12.0375 12.2846 12.5 11.3309 12.5 10.5 C 12.5 9.833 12.17565 8.8695 11.84375 8 L 10.71875 8 z "
       id="path3001"
       transform="translate(-3364.4171,2100.7186)" />
  </g>
</svg>
